X: 98
T:Maiden Lane
M:4/4
L:1/8
S:Playford
K:A
e3 d cB A2| a2 g2 a2 e2 | a2 g2 a2 ed| c2 B2 A4| e3 d cB A2| a2 g2 a2 e2 |a2 g2 a2 ed| c2 B2 A2:|
|: Bcde f2 B2| d2 c2 B2 f2| f2 f2 f2 ed |cBcd B4| Bcde f2 B2 d2 c2 B2 f2 | f2 f2 f2 ed|cBcd B4:|
|: e2 cd e2 cd|edcB c2 A2 | e2 cd efed | c2 B2 A4| e2 cd e2 cd edcB c2 A1| e2 cd efed |c2 B2 A4:|

